!!!!SEGMENT: pl-kk--kk-i-513--019_haser-august-ferdinand--miserere-benigne-fac-domine.krn
!!!cenid: 17xx:1859
!!!COM: Häser, August Ferdinand
!!!COM-rismID: pe37240
!!!CDT: 1779/10/15-1844/11/01
!!!CNT: German
!!!OPR: Miserere
!!!OTL: Benigne fac Domine
!!!OMV: 019
!!!PDT:
!!!AGN: Sacred
!!!SMS-siglum: PL-Kk
!!!SMS-shelfmark: Kk.I.513
!!!SMS-shelfwork: 001-019 M
!!!SMS-variant:
!!!SMS-altvar:
!!!NIFC-rismSourceID: 1001138560
!!!NIFC-islandoraID: pl-kk:14834
!!!URL-pdf-islandora: https://repozytorium.nifc.pl/islandora/object/pl-kk%3A14834/datastream/PDF/view
!!!URL-scan: https://polish.musicsources.pl/pl/lokalizacje/galeria/rekopisy/6123 @EN{Scan on Polish Music Sources Website} @PL{Skany w portalu Dziedzictwo Muzyki Polskiej w otwartym dostępie}
!!!ONB-nifc:
!!!AIN: 1 alto 1 bass 1 empty 1 soprn 1 tenor
!!!key:
**kern	**kern	**kern	**text	**kern	**text	**dynam	**kern	**text	**dynam	**kern	**text
*part5	*part5	*part4	*part4	*part3	*part3	*part3	*part2	*part2	*part2	*part1	*part1
*staff6	*staff5	*staff4	*staff4	*staff3	*staff3	*	*staff2	*staff2	*	*staff1	*staff1
*Iempty	*Iorgan	*Ibass	*	*Itenor	*	*	*Ialto	*	*	*Isoprn	*
*	*I"[Organo]	*I"Basso.	*	*I"Tenore.	*	*	*I"Alto	*	*	*I"Soprano.	*
*	*I'[org]	*I'B	*	*I'T	*	*	*I'A	*	*	*I'S	*
*clefF4	*clefG2	*clefF4	*	*clefC4	*	*	*clefG2	*	*	*clefG2	*
*k[f#]	*k[f#]	*k[f#]	*	*k[f#]	*	*	*k[f#]	*	*	*k[f#]	*
*G:	*G:	*G:	*	*G:	*	*	*G:	*	*	*G:	*
*M3/4	*M3/4	*M3/4	*	*M3/4	*	*	*M3/4	*	*	*M3/4	*
=1	=1	=1	=1	=1	=1	=1	=1	=1	=1	=1	=1
*^	*^	*	*	*	*	*	*	*	*	*	*
*2\right	*	*2\right	*	*	*	*2\right	*	*	*	*	*	*	*
!LO:TX:t=P:problem=all\right&colon; global	!	!LO:TX:t=P:problem=all\right&colon; global	!	!	!	!LO:TX:t=P:problem=all\right&colon; global	!	!	!LO:TX:t=P:problem=all\right&colon; global	!	!	!LO:TX:t=P:problem=all\right&colon; global	!
!	!	!LO:TX:t=P:problem=w źródle brak oznaczenia tempa	!	!	!	!	!	!	!LO:TX:t=P:problem=w źródle brak oznaczenia tempa	!	!	!	!
!	!	!	!	!LO:TX:a:t=P:problem=w źródle cała partia Basso pokreślona z zapisaną ołówkiem notatką "żle pisany"; partia napisana ponownie przez skryptora na stronie obok	!	!	!	!	!	!	!	!	!
!	!	!	!	!	!	!	!	!	!LO:TX:a:Bi:t=N 19.:problem='N 19.' znajduje się przed kluczem i oznaczeniem metrum na pięciolinii	!	!	!LO:TX:a:Bi:t=No 19.:problem='No 19.' znajduje się przed kluczem i oznaczeniem metrum na pięciolinii	!
!	!	!LO:TX:a:Bi:t=N 19.:problem='No 19.' znajduje się przed kluczem i oznaczeniem metrum	!	!LO:TX:a:Bi:t=No 19.:problem='No 19.' znajduje się przed kluczem i oznaczeniem metrum na pięciolinii	!	!LO:TX:a:Bi:t=N 19.:problem='No 19.' znajduje się przed kluczem i oznaczeniem metrum na pięciolinii	!	!	!	!	!	!	!
!	!	!	!	!	!	!LO:TX:a:Bi:t=Soli	!	!	!LO:TX:a:Bi:t=Soli	!	!	!LO:TX:a:Bi:t=Soli	!
!	!	!	!	!LO:TX:a:Bi:t=Andante:rj	!	!LO:TX:a:Bi:t=Andante:rj	!	!	!	!	!	!LO:TX:a:Bi:t=Andante:rj	!
4B/	2.G\	4dd/	2.g\	4G\	Be-	4B\	Be-	.	4g/	Be-	.	4dd\	Be-
4A#X/	.	4cc#X/	.	4G\	-ni-	4A#X\	-ni-	.	4g/	-ni-	.	4cc#X\	-ni-
4B/	.	4dd/	.	4G\	-gne	4B\	-gne	.	4g/	-gne	.	4dd\	-gne
=2	=2	=2	=2	=2	=2	=2	=2	=2	=2	=2	=2	=2	=2
4c/	4C\	4ee/	4g\	4C/	fac,	4c\	fac	.	4g/	fac	.	4ee\	fac.
4r	4ryy	4r	4ryy	4r	.	4r	.	.	4r	.	.	4r	.
4r	4ryy	4r	4ryy	4r	.	4r	.	.	4r	.	.	4r	.
=3	=3	=3	=3	=3	=3	=3	=3	=3	=3	=3	=3	=3	=3
4A/	2.D\	4cc/	4f#\	4D/	be-	4A/	be-	.	4f#/	be-	.	4cc\	be-
8A/L	.	8cc/L	4d\	8D/	-ni-	8A/	-ni-	.	8d/	-ni-	.	8cc\	-ni-
8G#X/J	.	8b/J	.	8D/	-gne	8G#X/	-gne	.	8d/	-gne	.	8b\	-gne
!	!	!	!	!	!	!	!	!	!	!	!	!LO:TX:a:Bi:t=t	!
4A/	.	8cc/L	4f#\	4D/	fac	8.A\L	fac	.	4f#/	fac	.	(>8cc\L	fac
.	.	8qqee/	.	.	.	.	.	.	.	.	.	.	.
.	.	8dd/J	.	.	.	.	.	.	.	.	.	8dd\J)	.
!	!	!	!	!	!	!LO:TX:a:Bi:t=cres cen do:problem=dynamics with extention lines	!	!	!	!	!	!	!
!	!	!	!	!	!	!	!	!LO:HP:a:Bi:t=cres cen do:ext=s	!	!	!	!	!
.	.	.	.	.	.	16d\Jk	.	<	.	.	.	.	.
*	*	*v	*v	*	*	*	*	*	*	*	*	*	*
=4	=4	=4	=4	=4	=4	=4	=4	=4	=4	=4	=4	=4
2.d/	8D\L	8.ccL 8.f#\	8.D/	Do-	8.d\	Do-	.	8.f#/	Do-	.	8.cc\	Do-
.	8G\J	.	.	.	.	.	.	.	.	.	.	.
.	.	16bJk 16g\	16G\	-mi-	16d\	-mi-	.	16g/	-mi-	.	16b\	-mi-
.	8G\L	8bL 8g\	8G\	-ne	8d\	-ne	.	8g/	-ne	.	8b\	-ne
.	8B\	8dd\J	8B\	in	8d\	in	.	8d/	in	.	8dd\	in
.	8A\	8ccL 8f#\	8A\	bo-	8d\	bo-	.	8f#/	bo-	.	8cc\	bo-
.	8G\J	8bJ 8g\	8G\	-na	8d\	-na	[	8g/	-na	.	8b\	-na
!	!	!	!LO:LB:g=original	!	!	!	!	!	!	!	!	!
=5	=5	=5	=5	=5	=5	=5	=5	=5	=5	=5	=5	=5
2.d/	8F#\L	8a/L	8F#\	vo-	8d\	vo-	.	8a/	vo-	.	8a\	vo-
.	8B\	8dd/	8B\	-lun-	8d\	-lun-	.	8d/	-lun-	.	8dd\	-lun-
!	!	!	!	!	!	!	!	!	!	!	!LO:LB:g=original	!
.	8A\	8cc 8f#/	8A\	-ta-	8d\	-ta-	.	8f#/	-ta-	.	8cc\	-ta-
.	8G\	8b 8g/	8G\	-te	8d\	-te	.	8g/	-te	.	8b\	-te
.	8F#\	8a/	8F#\	tu-	8d\	tu-	.	8d/	tu-	.	8a/	tu-
.	8E\J	8g/J	8E\	-a	8d\	-a	.	8g/	-a	.	8g/	-a
!LO:LB:g=original	!	!LO:LB:g=original	!	!	!LO:LB:g=original	!	!	!LO:LB:g=original	!	!	!	!
*v	*v	*	*	*	*	*	*	*	*	*	*	*
=6	=6	=6	=6	=6	=6	=6	=6	=6	=6	=6	=6
!	!	!	!	!	!	!LO:DY:a:rj	!	!	!	!	!
2.d 2.D\	4b 4g/	2.D/	ſi-	2.d\	ſi-	ff	4g/	ſi-	.	(<4b/	ſi-
.	4a 4f#/	.	.	.	.	.	4f#/	.	.	4a/	.
.	4g#X 4e#X/	.	.	.	.	.	4e#X/	.	.	4g#X/)	.
=7	=7	=7	=7	=7	=7	=7	=7	=7	=7	=7	=7
2d 2D\	2a 2f#/	2D/	-on,	2d\	-on	.	2f#/	-on	.	2a/	-on,
4r	4r	4r	.	4r	.	.	4r	.	.	4r	.
=8	=8	=8	=8	=8	=8	=8	=8	=8	=8	=8	=8
*^	*^	*	*	*	*	*	*	*	*	*	*
8r	4.D\	8r	4.f#\	8r	.	8r	.	.	8r	.	.	8r	.
!	!	!	!	!	!	!LO:TX:a:Bi:t=dol:rj	!	!	!LO:TX:a:Bi:t=tutti	!	!	!LO:TX:a:Bi:t=tutti	!
2d/	.	[>2dd/	.	4D\	ut	4d\	ut	.	4f#/	ut	.	4dd\	ut
.	16E\LL	.	16g\LL	16E\LL	ae-	8d\	ae-	.	16g/LL	ae-	.	8dd\	ae-
.	16F#\JJ	.	16a\JJ	16F#\JJ	.	.	.	.	16a/JJ	.	.	.	.
.	8G\L	.	8b\L	8G\	-di-	8d\	-di-	.	8b/	-di-	.	8dd\	-di-
8ryy	8F#\J	8dd/]	8a\J	8F#\	-fi-	8d\	-fi-	.	8a/	-fi-	.	8dd\	-fi-
*v	*v	*	*	*	*	*	*	*	*	*	*	*	*
=9	=9	=9	=9	=9	=9	=9	=9	=9	=9	=9	=9	=9
4B 4E\	8dd/L	2.g\	4E\	-cen-	4B\	-cen-	.	4g/	-cen-	.	(>8dd\L	-cen-
.	16ee/L	.	.	.	.	.	.	.	.	.	16ee\L	.
.	16dd/JJ	.	.	.	.	.	.	.	.	.	16dd\JJ)	.
8A\L	8cc#X/	.	8A\	-tur,	8A\	-tur	.	8g/	-tur	.	8cc#X\	-tur
8C#X 8AA\	4.ee/	.	8AA/	ae-	8c#X\	ae-	.	8g/	ae-	.	8ee\	ae-
8D 8BB\	.	.	8BB/	-di-	8d\	-di-	.	8g/	-di-	.	8ee\	-di-
!	!	!	!	!	!	!	!	!	!	!	!LO:TX:b:Bi:t=V S.	!
8AJ 8C#\	.	.	8C#X/	-fi-	8A\	-fi-	.	8g/	-fi-	.	8ee\	-fi-
!	!	!	!LO:LB:g=original	!	!	!	!	!	!	!	!LO:PB:g=original	!
=10	=10	=10	=10	=10	=10	=10	=10	=10	=10	=10	=10	=10
4.A 4.D\	8ee/L	4f#\	4D\	-cen-	4A\	-cen-	.	4f#/	-cen-	.	(>8ee\L	-cen-
.	16dd/L	.	.	.	.	.	.	.	.	.	16dd\L	.
.	16cc#X/JJ	.	.	.	.	.	.	.	.	.	16cc#X\JJ)	.
.	2dd/	8f#\L	8D\	-tur	8A\	-tur	.	8f#/	-tur	.	8dd\	-tur
16E\LL	.	16g\L	(>16E\LL	mu-	8d\	mu-	.	16g/LL	mu-	.	8dd\	mu-
16F#\JJ	.	16a\JJ	16F#\JJ)	.	.	.	.	16a/JJ	.	.	.	.
8G\L	.	8b\L	8G\	-ri	8d\	-ri	.	8b/	-ri	.	8dd\	-ri
8F#\J	.	8a\J	8F#\	Je	8d\	Je	.	8a/	Je	.	8dd\	Je-
!LO:LB:g=original	!LO:LB:g=original	!	!	!	!	!	!	!	!	!	!	!
=11	=11	=11	=11	=11	=11	=11	=11	=11	=11	=11	=11	=11
4B 4E\	8dd/L	2.g\	8.E\	-ru-	8.B\	-ru-	.	8.g/	-ru-	.	8dd\	-ru-
.	16ee/L	.	.	.	.	.	.	.	.	.	(>16ee\LL	-sa-
!	!	!	!	!	!	!	!	!LO:TX:t=P:tekst:problem=w źródle podwójne sylaby na nutę	!	!	!	!
.	16dd/JJ	.	16E\	sa-	16B\	sa-	.	16g/	sa-	.	16dd\JJ)	.
!	!	!	!	!	!	!	!	!LO:LB:g=original	!	!	!	!
8A\L	8cc#X/	.	8A\	-lem,	8B\	-lem	.	8g/	-lem Je-	.	8cc#X\	-lem
8C#X 8AA\	4.ee/	.	8AA/	mu-	8c#X\	mu-	.	8g/	-ru-	.	8ee\	mu-
8D 8BB\	.	.	8BB/	-ri	8d\	-ri	.	8g/	-sa-	.	8ee\	-ri
8AJ 8C#\	.	.	8C#X/	Je-	8A\	Je-	.	8g/	-lem Je-	.	8ee\	Je-
!	!	!	!	!	!LO:LB:g=original	!	!	!	!	!	!	!
=12	=12	=12	=12	=12	=12	=12	=12	=12	=12	=12	=12	=12
2A 2D\	8ee/L	2f#\	8.D/	-ru-	8.A\	-ru-	.	8.f#/	-ru-	.	8ee\	-ru-
.	16dd/L	.	.	.	.	.	.	.	.	.	(>16dd\LL	-sa-
.	16cc#X/JJ	.	16D/	-sa-	16A\	-sa-	.	16f#/	-sa-	.	16cc#X\JJ)	.
.	4dd/	.	4D/	-lem:	4A\	-lem	.	4f#/	-lem	.	4dd\	-lem,
4r	4r	4ryy	4r	.	4r	.	.	4r	.	.	4r	.
*	*v	*v	*	*	*	*	*	*	*	*	*	*
=13	=13	=13	=13	=13	=13	=13	=13	=13	=13	=13	=13
*^	*	*	*	*	*	*	*	*	*	*	*
4r	4.ryy	4r	4r	.	4r	.	.	4r	.	.	4r	.
8r	.	8r	8r	.	8r	.	.	8r	.	.	8r	.
!	!	!	!	!	!LO:TX:a:Bi:t=Soli	!	!	!LO:TX:a:Bi:t=Soli:rj	!	!	!	!
4.A/	4D\	4f# 4d/	8D\	be-	8A\	be-	.	8d/	be-	.	8f#/	be-
.	.	.	8D\	-ni-	8A\	-ni-	.	8d/	-ni-	.	8f#/	-ni-
.	8E\	8g [<8d/	8E\	-gne	8A\	-gne	.	8d/	-gne	.	8g/	-gne
!	!	!	!LO:LB:g=original	!	!	!	!	!	!	!	!	!
=14	=14	=14	=14	=14	=14	=14	=14	=14	=14	=14	=14	=14
4A\	4F#\	4a 4d/]	4F#\	fac,	4A\	fac	.	4d/	fac	.	4a/	fac
8r	8ryy	8r	8r	.	8r	.	.	8r	.	.	8r	.
*	*	*	*	*	*	*ij	*	*	*ij	*	*	*
4.d/	4F#\	4a 4d/	8F#\	be-	8c\	be-	.	8d/	be-	.	8a/	be-
.	.	.	8F#\	-ni-	8d\	-ni-	.	8d/	-ni-	.	8a/	-ni-
.	8G\	8b 8g/	8G\	-gne	8d\	-gne	.	8g/	-gne	.	8b/	-gne
!	!	!	!	!	!	!	!	!	!	!	!LO:LB:g=original	!
=15	=15	=15	=15	=15	=15	=15	=15	=15	=15	=15	=15	=15
4d/	4A\	4cc 4f#\	4A\	fac,	4d\	fac	.	4f#/	fac	.	4cc\	fac
*	*	*	*	*	*	*Xij	*	*	*Xij	*	*	*
4r	4ryy	4r	4r	.	4r	.	.	4r	.	.	4r	.
4r	4ryy	4r	4r	.	4r	.	.	4r	.	.	4r	.
!LO:LB:g=original	!	!LO:LB:g=original	!	!	!	!	!	!LO:LB:g=original	!	!	!	!
=16	=16	=16	=16	=16	=16	=16	=16	=16	=16	=16	=16	=16
*	*	*^	*	*	*	*	*	*	*	*	*	*
!	!	!	!	!	!	!LO:TX:a:Bi:t=tutti	!	!	!LO:TX:a:Bi:t=tutti	!	!	!	!
8r	8ryy	8r	8ryy	8r	.	8r	.	.	8r	.	.	8r	.
4d/	4G\	4b/	[>2g\	4G\	ut	4d\	ut	.	4g/	ut	.	4b\	ut
16A\LL	8ryy	16cc/LL	.	(>16A\LL	ae-	8g\	ae-	.	8g/	ae-	.	(>16cc\LL	ae-
16B\JJ	.	16dd/JJ	.	16B\JJ)	.	.	.	.	.	.	.	16dd\JJ)	.
8c\L	4ryy	8ee/L	.	8c\	-di-	8g\	-di-	.	8g/	-di-	.	8ee\	-di-
8B\J	.	8dd/J	8g\]	8B\	-fi-	8g\	-fi-	.	8g/	-fi-	.	8dd\	-fi-
=17	=17	=17	=17	=17	=17	=17	=17	=17	=17	=17	=17	=17	=17
4e/	4A\	2cc/	8g\L	4A\	-cen-	4e\	-cen-	.	8g/L	-cen-	.	4cc\	-cen-
.	.	.	16a\L	.	.	.	.	.	16a/L	.	.	.	.
.	.	.	16g\JJ	.	.	.	.	.	16g/JJ	.	.	.	.
2d/	8r	.	4f#\	8d\	-tur,	8d\	-tur	.	8f#/	-tur	.	8cc\	-tur
.	8D\L	.	.	8D\	ae-	8d\	ae-	.	8f#/	ae-	.	8cc\	ae-
.	8E\	4ryy	8g\L	8E\	-di-	8d\	-di-	.	8g/	-di-	.	8cc\	-di-
.	8F#\J	.	8a\J	8F#\	-fi-	8d\	-fi-	.	8a/	-fi-	.	8cc\	-fi-
!	!	!	!	!LO:LB:g=original	!	!LO:LB:g=original	!	!	!	!	!	!	!
*v	*v	*	*	*	*	*	*	*	*	*	*	*	*
=18	=18	=18	=18	=18	=18	=18	=18	=18	=18	=18	=18	=18
4.d 4.G\	4b/	8a\L	4G\	-cen-	4d\	-cen-	.	8a/L	-cen-	.	4b\	-cen-
.	.	16g\L	.	.	.	.	.	16g/L	.	.	.	.
.	.	16f#\JJ	.	.	.	.	.	16f#/JJ	.	.	.	.
.	8b/L	2g\	8G\	-tur	8d\	-tur	.	8g/	-tur	.	8b\	-tur
16A\LL	16cc/L	.	(>16A\LL	mu-	8g\	mu-	.	8g/	mu-	.	(>16cc\LL	mu-
16B\JJ	16dd/JJ	.	16B\JJ)	.	.	.	.	.	.	.	16dd\JJ)	.
8c\L	8ee/L	.	8c\	-ri	8g\	-ri	.	8g/	-ri	.	8ee\	-ri
8B\J	8dd/J	.	8B\	Je-	8g\	Je-	.	8g/	Je-	.	8dd\	Je-
=19	=19	=19	=19	=19	=19	=19	=19	=19	=19	=19	=19	=19
*^	*	*	*	*	*	*	*	*	*	*	*	*
4e 4A\	4ryy	2.cc/	8g\L	8.A\	-ru-	8.e\	-ru-	.	8g/L	-ru-	.	8.cc\	-ru-
.	.	.	16a\L	.	.	.	.	.	16a/L	-sa-	.	.	.
.	.	.	16g\JJ	16A\	-sa-	16e\	-sa-	.	16g/JJ	.	.	16cc\	-sa-
!	!LO:N:vis=2	!	!	!	!	!	!	!	!	!	!	!	!
2d\	8d\L	.	4f#\	8d\	-lem,	8d\	-lem	.	8f#/	-lem	.	8cc\	-lem
.	8D\	.	.	8D\	mu-	8d\	mu-	.	8f#/	mu-	.	8cc\	mu-
.	8E\	.	8g\L	8E\	-ri	8d\	-ri	.	8g/	-ri	.	8cc\	-ri
.	8F#\J	.	8a\J	8F#\	Je-	8d\	Je-	.	8a/	Je-	.	8cc\	Je-
!	!	!	!	!	!	!	!	!	!LO:LB:g=original	!	!	!LO:LB:g=original	!
*v	*v	*	*	*	*	*	*	*	*	*	*	*	*
=20	=20	=20	=20	=20	=20	=20	=20	=20	=20	=20	=20	=20
2d 2G\	4b/	8a\L	8.G\	-ru-	8.d\	-ru-	.	8a/	-ru-	.	8.b\	-ru-
.	.	(>16g\L	.	.	.	.	.	16g/LL	-sa-	.	.	.
.	.	16f#\JJ	16G\	-sa-	16d\	-sa-	.	16f#/JJ	.	.	16b\	-sa-
.	4b 4g/)	4ryy	4G\	-lem,	4d\	-lem	.	4g/	-lem	.	4b\	-lem,
4r	4r	4ryy	4r	.	4r	.	.	4r	.	.	4r	.
!LO:LB:g=original	!LO:LB:g=original	!	!	!	!	!	!	!	!	!	!	!
*	*v	*v	*	*	*	*	*	*	*	*	*	*
=21	=21	=21	=21	=21	=21	=21	=21	=21	=21	=21	=21
*^	*	*	*	*	*	*	*	*	*	*	*
4r	4.ryy	4r	4r	.	4r	.	.	4r	.	.	4r	.
8r	.	8r	8r	.	8r	.	.	8r	.	.	8r	.
!	!	!	!	!	!LO:TX:a:Bi:t=Soli:rj	!	!	!LO:TX:a:Bi:t=Soli	!	!	!	!
8G\L	4d/	8bL 8g/	8G\	be-	8d\	be-	.	8g/	be-	.	8b\	be-
8A\	.	8cc 8f#/	8A\	-ni-	8d\	-ni-	.	8f#/	-ni-	.	8cc\	-ni-
8B\J	8ryy	8ddJ 8fn/	8B\	-gne	8d\	-gne	.	8fn/	-gne	.	8dd\	-gne
!	!	!	!LO:LB:g=original	!	!	!	!	!	!	!	!	!
=22	=22	=22	=22	=22	=22	=22	=22	=22	=22	=22	=22	=22
4c\	4.ryy	4ee 4e/	4c\	fac,	4c\	fac	.	4e/	fac	.	4ee\	fac
8r	.	8r	8r	.	8r	.	.	8r	.	.	8r	.
*	*	*	*	*	*	*ij	*	*	*ij	*	*	*
4B/	8E\L	8eeL 8g#X/	8E\	be-	8B\	be-	.	8g#X/	be-	.	8ee\	be-
.	8F#\	8dd#X 8a/	8F#\	-ni-	8B\	-ni-	.	8a/	-ni-	.	8dd#X\	-ni-
8ryy	8e 8G#X\J	8ddnJ 8b/	8G#X\	-gne	8e\	-gne	.	8b/	-gne	.	8ddn\	-gne
!	!	!	!	!	!LO:LB:g=original	!	!	!	!	!	!	!
*v	*v	*	*	*	*	*	*	*	*	*	*	*
=23	=23	=23	=23	=23	=23	=23	=23	=23	=23	=23	=23
4e 4A\	4cc 4a/	4A\	fac,	4e\	fac	.	4a/	fac	.	4cc\	fac,
*	*	*	*	*	*Xij	*	*	*Xij	*	*	*
4r	4r	4r	.	4r	.	.	4r	.	.	4r	.
4r	4r	4r	.	4r	.	.	4r	.	.	4r	.
=24	=24	=24	=24	=24	=24	=24	=24	=24	=24	=24	=24
!	!	!	!	!	!	!	!LO:TX:a:Bi:t=tutti	!	!	!	!
!	!	!	!	!	!	!	!	!	!LO:HP:b:rj	!	!
2.d 2.D\	2.cc 2.a 2.f#/	4.D\	ut	4.e\	ut	.	4.a/	ut	<	4.cc\	ut
.	.	8d\	ae-	8g\	ae-	.	8a/	ae-	.	8cc\	ae-
.	.	8d\	-di-	8f#\	-di-	.	8a/	-di-	.	8cc\	-di-
.	.	8d\	-fi-	8f#\	-fi-	.	8a/	-fi-	.	8cc\	-fi-
=25	=25	=25	=25	=25	=25	=25	=25	=25	=25	=25	=25
4a 4d#X\	4ff# 4cc/	4d#X\	-cen-	4a\	-cen-	.	4cc\	-cen-	.	4ff#\	-cen-
4g 4e\	4gg 4b/	4e\	-tur	4g\	-tur	.	4b\	-tur	.	4gg\	-tur,
4r	4r	4r	.	4r	.	.	4r	.	.	4r	.
!LO:LB:g=original	!LO:LB:g=original	!	!	!	!	!	!LO:LB:g=original	!	!	!LO:LB:g=original	!
=26	=26	=26	=26	=26	=26	=26	=26	=26	=26	=26	=26
*^	*^	*	*	*	*	*	*	*	*	*	*
!	!	!	!	!	!	!	!	!LO:DY:b:rj	!	!	!	!	!
4c 4G/	2.C\	4ee/	2.e\	4C/	mu-	4G/	mu-	f	4e/	mu-	.	4ee\	mu-
8G#X\L	.	8dd/L	.	4C/	-ri	8G#X/L	-ri	.	4e/	-ri	.	(>8dd\L	-ri
8A\	.	8cc/	.	.	.	8A/J	.	.	.	.	.	8cc\J)	.
8B\	.	8b/	.	4C/	Je-	8B\L	Je-	.	4e/	Je-	.	(<8b/L	Je-
8c\J	.	8a/J	.	.	.	8c\J	.	.	.	.	.	8a/J)	.
!	!	!	!	!LO:LB:g=original	!	!	!	!	!	!	!	!	!
=27	=27	=27	=27	=27	=27	=27	=27	=27	=27	=27	=27	=27	=27
4B/	2.D\	2g/	2.d\	2D/	-ru-	(>4B\	-ru-	.	2d/	-ru-	.	2g/	-ru-
4A/	.	.	.	.	.	(>4A\)	.	.	.	.	.	.	.
4c/	.	4f#/	.	4D/	-sa-	8c\)	.	.	4d/	-sa-	.	4f#/	-sa-
.	.	.	.	.	.	8c\	-sa-	.	.	.	.	.	.
*v	*v	*	*	*	*	*	*	*	*	*	*	*	*
*	*v	*v	*	*	*	*	*	*	*	*	*	*
=28	=28	=28	=28	=28	=28	=28	=28	=28	=28	=28	=28
2G 2D 2GG/	2g 2B/	2G 2GG\	-lem.	2B\	-lem	.	2d/	-lem	.	2g/	-lem.
!	!	!LO:TX:a:Bi:t= 1868. \n14/4 Kasper Molęcki	!	!	!	!	!	!	!	!	!
4r	4r	4r	.	4r	.	.	4r	.	.	4r	.
==	==	==	==	==	==	==	==	==	==	==	==
*-	*-	*-	*-	*-	*-	*-	*-	*-	*-	*-	*-
!!!system-decoration: [(s1,s2,s3,s4)]{(s5,s6)}
!!!RDF**kern: > = above
!!!RDF**kern: < = below
!!!RDF**dynam: < = "cres", fontstyle="bold-italic"
!!!EED: Wojciech Jakubiak-Danek
!!!EEV: 2021-01-03
!!!ENC: Tomasz Grochalski
!!!END: 2021-01-01
